X:1
T:Bach's "Little" Fugue in G Minor
T:Comp: J.S. Bach Arr: Nic Marshall 
T:Arranged for Sinfonia 2019 Woodwind Quartet
%%score 1 2 3 4
L:1/8
Q:1/4=84
M:4/4
K:Bb
V:1 treble transpose=12 nm="Piccolo" snm="Picc."
V:2 treble nm="Flute" snm="Fl."
V:3 treble nm="Flute" snm="Fl."
V:4 treble transpose=-2 nm="B♭ Clarinet" snm="B♭ Cl."
V:1
"^Adagio" G2 d2 B3 A | GBAG ^FA !breath!D2 | GDAD BA/G/ AD | GD/G/ AD/A/ BA/G/ A/D/d/c/ | %4
 B/A/G/B/ A/G/^F/A/ G/D/G/A/ B/c/d/=e/ ||"^A" f/=e/d/f/ e/d/^c/e/ dAde | %6
 f/g/f/g/ Tg3/2f/4g/4 a/g/a/b/ a/g/f/=e/ | f/a/g/a/ ^c/a/g/a/ d/a/g/a/ c/a/g/a/ | %8
 f/d/^c/d/ g/d/c/d/ a/d/c/d/ g/d/c/d/ | AfG=e FAdf | ea z e dg z d | %11
 c/B/c/d/ c/a/g/a/ B/g/^f/g/ A/f/=e/f/ ||"^B" g4 z4 | z4 z/ d/c/d/ ^F z | z/ d/c/d/ ^F z B2 c2 | %15
 d2 c2 dBcA | BD G/A/B/G/ Ad^c=e ||"^C" a/b/a/g/ f/=e/d/^c/ d z b z | =e z z a a4- | a8- | %20
 a4- a/g/a/b/ a/g/f/=e/ ||"^D" f z z2 z dgf | e4- ecfe | d2- d/g/^f/g/ c2- !breath!c/B/A/c/ | %24
 B/A/G/B/ A/G/^F/A/ G/D/=E/F/ G/D/G/A/ ||"^E" B/G/B/c/ d/A/d/c/ B3 A | GBAG ^FA !breath!D2 | %27
 GDAD BA/G/ AD | GD/G/ AD/A/ BA/G/ A/D/d/c/ | B/A/G/B/ A/G/^F/A/ G/B/c/d/ e z | %30
 z/ A/B/c/ d z z/ G/A/B/ c z | z/ F/G/A/ B z z/ c/d/e/ f/g/f/e/ ||"^F" d z z2 z/ F/G/A/ B/c/B/c/ | %33
 d/=e/d/e/ Te3/2d/4e/4 f/_e/f/g/ f/e/d/c/ | d/f/e/f/ A z B/f/e/f/ A z | d/B/A/B/ e z d/B/A/B/ e z | %36
 B/c/d/B/ e/d/c/e/ d/c/d/e/ d/c/B/d/ | c/B/c/d/ c/B/A/c/ B/A/B/c/ B/A/G/B/ | Af z _A Ge z G | %39
 Fd z F E/G/c/B/ A/G/F/E/ ||"^G" D/E/F/G/ A/B/c/A/ B/F/G/A/ B/c/B/c/ | %41
 d/=e/d/e/ Te3/2d/4e/4 f/g/f/g/ ff | f8- | f8- ||"^H" !breath!f/e/f/g/ c>a b/a/b/c'/ b/a/g/f/ | %45
 e/d/e/f/ e/d/c/B/ a/g/a/b/ a/g/f/e/ | d/c/d/e/ d/c/B/A/ g/f/g/_a/ g/f/e/d/ | %47
 c/=B/c/d/ c/d/e/c/ f2- !breath!f/_a/g/f/ | e4- e/c/d/e/ f/g/_a/f/ | =B/c/d/B/ G z c2 g2 || %50
"^I" e3 d cedc | =Bd !breath!G2 cGdG | ed/c/ dG cG/c/ dG/d/ | ed/c/ d/G/g/f/ e/d/c/e/ d/c/=B/d/ || %54
"^J" c2 z2 z4 | z8 | z8 | z8 ||"^K" G/B/A/G/ d/A/D/c/ B/d/c/B/ f/c/F/e/ | %59
 d/f/e/d/ g/d/G/d/ =e/g/f/e/ a/e/A/e/ | ^f2 ga b4- | b2 a4 g2- | g2 ^f2 g2 z2 || %63
"^L" z dga b/a/g/a/ ^f/g/f/g/ | a/g/^f/=e/ d/c/B/A/ B/d'/c'/d'/ f/d'/c'/d'/ | %65
 g/d'/c'/d'/ ^f/d'/c'/d'/ b/g/f/g/ c'/g/f/g/ | d'/g/^f/g/ c'/g/f/g/ bgaf | g8 |] %68
V:2
 z8 | z8 | z8 | z8 | z8 || d2 a2 f3 =e | df=ed _de !breath!A2 | dA=eA fe/d/ eA | %8
 dA/d/ =eA/e/ fe/d/ e/A/a/g/ | f/=e/d/f/ e/d/^c/e/ d/A/d/e/ f/g/a/=b/ | %10
 c'/b/c'/d'/ c'/b/a/c'/ b/a/b/c'/ b/a/g/b/ | ag^fd g2 z2 || z dga b/c'/b/c'/ Tc'3/2b/4c'/4 | %13
 d'/c'/d'/e'/ d'/c'/b/a/ b z z/ d'/c'/d'/ | d z z/ d'/c'/d'/ b/g/^f/g/ c'/g/f/g/ | %15
 d'/g/^f/g/ c'/g/f/g/ d2 c2 | B2 z2 a4- || aAd=e f/g/f/g/ Tg3/2f/4g/4 | %18
 a/g/a/b/ a/g/f/=e/ f/a/g/a/ ^c/a/g/a/ | d/a/g/a/ ^c/a/g/a/ f2 g2 | a2 !breath!g2 f=e/d/ ^c>d || %21
 dad'c' b4- | bgc'b a4- | a2 g4 ^f2 | g z z2 G2 d2 || g2 d'2 b3 a | gbag ^fa !breath!d2 | %27
 gdad ba/g/ ad | gd/g/ ad/a/ ba/g/ a/d/d'/c'/ | b/a/g/b/ a/g/^f/a/ g z z/ b/a/g/ | %30
 ^f z z/ a/g/=f/ e z z/ g/f/e/ | d z z/ d'/c'/b/ a z z2 || %32
 z/ f'/e'/d'/ c'/b/a/c'/ b/f/g/a/ b/c'/b/c'/ | %33
 d'/=e'/d'/e'/ Te'3/2d'/4e'/4 f'/_e'/f'/g'/ f'/e'/d'/c'/ | b z a/f'/e'/f'/ b z a/f'/e'/f'/ | %35
 d' z e'/b/a/b/ f' z e'/b/a/b/ | b z z2 z4 | z8 | fa z f eg z e | df z d c/B/c/d/ c/B/A/c/ || %40
 B/c/d/B/ c/d/e/c/ d/c/B/c/ d/e/d/e/ | f/g/f/g/ Tg3/2f/4g/4 a/g/a/b/ a/g/f/e/ | %42
 d z z/ f/e/f/ B z z/ f/e/f/ | d z z/ b/a/b/ f z z/ b/a/b/ || b/d'/c'/b/ a/g/f/e/ dfba | g4- gBag | %46
 f4 gBgf | e4- e/e/d/c/ =B2 | c2 z2 z4 | z8 || z8 | z8 | z8 | z8 || %54
 z/ g'/e'/g'/ c'/e'/g/b/ a/c'/a/c'/ f/a/c/e/ | d/f'/d'/f'/ b/d'/f/a/ g/b/g/b/ e/g/B/d/ | %56
 c/e'/c'/e'/ a/c'/=e/g/ ^f/a/f/a/ d/f/A/c/ | bg'a^f' g'2 z2 || z8 | z4 z2 =e/g/a- | %60
 a/e'/d'/c'/ b/d'/a/d'/ g/_a'/g'/f'/ g'/f'/e'/d'/ | e'4 d'4 | !breath!c'4 b/d'/c'/b/ a/b/g/a/ || %63
 b/c'/b/c'/ d'/e'/d'/c'/ bd'c'b | a2 z b/a/ b/d'/c'/d'/ ^f/d'/c'/d'/ | %65
 g/d'/c'/d'/ ^f/d'/c'/d'/ b/g/f/g/ c'/g/f/g/ | d'/g/^f/g/ c'/g/f/g/ bg'a^f' | g'8 |] %68
V:3
 z8 | z8 | z8 | z8 | z8 || z8 | z8 | z8 | z8 | z8 | z8 | z4 G2 d2 || B3 A GBAG | %13
 ^FA !breath!D2 GDAD | BA/G/ AD GD/G/ AD/A/ | BA/G/ A/D/d/c/ B/A/G/B/ A/G/^F/A/ | %16
 G/D/G/A/ B/c/d/=e/ f/e/d/f/ e/d/^c/e/ || dAd=e f/g/f/g/ Tg3/2f/4g/4 | a/g/a/b/ a/g/f/=e/ f2 ^c2 | %19
 d2 !breath!^c2 f/d/c/d/ g/d/c/d/ | a/d/^c/d/ g/d/c/d/ f=e/d/ c>d || d/c/d/=e/ d/c/B/A/ G z z2 | %22
 c/B/c/d/ c/B/A/G/ F z z2 | z/ B/c/d/ e2 z/ A/B/c/ d2 | G2 d2 B3 A || %25
 G/B/A/G/ ^F/G/=E/F/ G/D/E/F/ G/D/G/A/ | B/c/B/c/ Tc3/2B/4c/4 d/c/d/e/ d/c/B/A/ | %27
 B/d/c/d/ ^F/d/c/d/ G/d/c/d/ F/d/c/d/ | B/G/^F/G/ c/G/F/G/ d/G/F/G/ c/G/F/G/ | %29
 GB c/B/A/c/ B2- !breath!B/d/c/B/ | A2- A/c/B/A/ G2- G/B/A/G/ | F3 =E F2 z2 || B2 f2 d3 c | %33
 BdcB Ac !breath!F2 | BFcF dc/B/ cF | BF/B/ cF/c/ dc/B/ c/F/f/e/ | d/c/B/d/ c/B/A/c/ Bg z G | %37
 Af z F Gfc=e | f/e/f/g/ f/e/d/f/ e/d/e/f/ e/d/c/e/ | d/c/d/e/ d/c/B/d/ c z z2 || z4 B2 f2 | f8 | %42
 z/ f/e/f/ A z z/ f/e/f/ A z | z/ b/a/b/ e z z/ b/a/b/ e z || z4 d4- | dGcB A4- | AFBA G4- | %47
 GE_AG F2 G2- | G/G/A/=B/ c/d/e/c/ _Ac_af- | f2- !breath!f/f/e/d/ e/d/c/e/ d/c/=B/d/ || %50
 c/G/c/d/ e/f/e/f/ g/e/c/g/ _a/f/g/a/ | d/e/d/c/ =Bd G4- | G8- | G4- !breath!Gg f/e/d/f/ || %54
 e2 z2 z cAF | B4- BBGE | A4- AA^FD | z4 G/B/A/G/ d/A/D/c/ || BdA d2 gcf- | ffd g2 g=ea | %60
 d2 z2 z4 | z8 | z4 G/B/d/g/ ^f/g/=e/f/ || g3 ^f g2 ad | d2 z d d4- | d8- | d4 d e2 d | =b8 |] %68
V:4
[K:C] z8 | z8 | z8 | z8 | z8 || z8 | z8 | z8 | z8 | z8 | z8 | z8 || z8 | z8 | z8 | z8 | z4 E2 B2 || %17
 G3 ^F EGFE | _E^F !breath!B,2 =EB,FB, | G^F/E/ FB, EB,/E/ FB,/F/ | G^F/E/ FB, EA, B,2 || %21
 E,2 z2 A/G/A/B/ A/G/F/E/ | D z z2 G/F/G/A/ G/F/E/D/ | C z z2 z4 | z8 || z4 z A,AG | %26
 F z F, z E,E E2- | E8- | E8- | E6 D2- | D2 C4 B,2 | CB, A,2 G,2 z2 || z8 | z8 | z8 | z8 | z8 | %37
 z8 | g z z2 f z z2 | e z z2 d z D/C/B,/D/ || C2 G2 E3 D | CEDC B,D !breath!G,2 | %42
 CG,DG, ED/C/ DG, | CG,/C/ DG,/D/ ED/C/ DG, || EFGG, C2 z2 | D2 z2 G,2 z2 | C2 z2 F,2 z2 | %47
 _B,2 z2 E,2 A,2 | D2 z2 G,2 z2 | !breath!G,8 || DA,DE F2 G2 | %51
 A2- !breath!A/A/G/A/ F/A/G/A/ ^C/A/G/A/ | D/A/G/A/ ^C/A/G/A/ F/d/^c/d/ G/d/c/d/ | %53
 A/d/^c/d/ A/c/B/c/ DFGA || z AFD G2 z2 | z GEC F2 z2 | z FDB, E2 z2 | %57
 C/E/D/C/ E/B,/E/D/ CE^G,^G || A2 ^G2 A2 B2 | c2 ^c2 d2 ^d2 | e2 ^f^g !breath!a2 Bc | %61
 d/A/G/F/ d/A/F/A/ C/G/F/E/ c/A/F/A/ | B,/F/E/D/ B/^G/E/G/ A2 e2 || c3 B AcBA | %64
 ^GB !breath!E2 AEBE | cB/A/ BE AE/A/ BE/B/ | cB/A/ BE AFDE | A8 |] %68

